icons/svg/additional/foot_yes.svg

<?xml version="1.0" encoding="UTF-8" standalone="no"?>
<!-- Created with Inkscape (http://www.inkscape.org/) -->

<svg
   xmlns:dc="http://purl.org/dc/elements/1.1/"
   xmlns:cc="http://creativecommons.org/ns#"
   xmlns:rdf="http://www.w3.org/1999/02/22-rdf-syntax-ns#"
   xmlns:svg="http://www.w3.org/2000/svg"
   xmlns="http://www.w3.org/2000/svg"
   xmlns:sodipodi="http://sodipodi.sourceforge.net/DTD/sodipodi-0.dtd"
   xmlns:inkscape="http://www.inkscape.org/namespaces/inkscape"
   version="1.0"
   width="580"
   height="580"
   id="svg2"
   sodipodi:version="0.32"
   inkscape:version="0.92.3 (2405546, 2018-03-11)"
   sodipodi:docname="foot_yes.svg"
   inkscape:output_extension="org.inkscape.output.svg.inkscape">
  <metadata
     id="metadata2975">
    <rdf:RDF>
      <cc:Work
         rdf:about="">
        <dc:format>image/svg+xml</dc:format>
        <dc:type
           rdf:resource="http://purl.org/dc/dcmitype/StillImage" />
        <cc:license
           rdf:resource="http://web.resource.org/cc/PublicDomain" />
        <dc:language>en</dc:language>
      </cc:Work>
    </rdf:RDF>
  </metadata>
  <sodipodi:namedview
     inkscape:window-height="1006"
     inkscape:window-width="1920"
     inkscape:pageshadow="2"
     inkscape:pageopacity="0.0"
     guidetolerance="10.0"
     gridtolerance="10.0"
     objecttolerance="10.0"
     borderopacity="1.0"
     bordercolor="#666666"
     pagecolor="#ffffff"
     id="base"
     inkscape:zoom="0.65172416"
     inkscape:cx="94.192729"
     inkscape:cy="294.23925"
     inkscape:window-x="1920"
     inkscape:window-y="0"
     inkscape:current-layer="svg2"
     showgrid="false"
     inkscape:window-maximized="1" />
  <defs
     id="defs4">
    <inkscape:perspective
       sodipodi:type="inkscape:persp3d"
       inkscape:vp_x="0 : 290 : 1"
       inkscape:vp_y="0 : 1000 : 0"
       inkscape:vp_z="580 : 290 : 1"
       inkscape:persp3d-origin="290 : 193.33333 : 1"
       id="perspective2441" />
  </defs>
  <g
     id="g1327">
    <path
       d="M 66.275,1.768 C 24.94,1.768 1.704,23.139 1.704,66.804 L 1.704,516.927 C 1.704,557.771 22.599,579.156 63.896,579.156 L 515.92,579.156 C 557.227,579.156 578.149,558.841 578.149,516.927 L 578.149,66.804 C 578.149,24.203 557.227,1.768 514.628,1.768 C 514.624,1.768 66.133,1.625 66.275,1.768 z "
       style="fill:#111;stroke:#eee;stroke-width:3.40799999"
       id="path1329" />
  </g>
  <g
     id="g4372"
     transform="translate(-130.0802,122.26983)" />
  <path
     inkscape:connector-curvature="0"
     style="color:#000000;font-style:normal;font-variant:normal;font-weight:normal;font-stretch:normal;font-size:medium;line-height:normal;font-family:sans-serif;font-variant-ligatures:normal;font-variant-position:normal;font-variant-caps:normal;font-variant-numeric:normal;font-variant-alternates:normal;font-feature-settings:normal;text-indent:0;text-align:start;text-decoration:none;text-decoration-line:none;text-decoration-style:solid;text-decoration-color:#000000;letter-spacing:normal;word-spacing:normal;text-transform:none;writing-mode:lr-tb;direction:ltr;text-orientation:mixed;dominant-baseline:auto;baseline-shift:baseline;text-anchor:start;white-space:normal;shape-padding:0;clip-rule:nonzero;display:inline;overflow:visible;visibility:visible;opacity:1;isolation:auto;mix-blend-mode:normal;color-interpolation:sRGB;color-interpolation-filters:linearRGB;solid-color:#000000;solid-opacity:1;vector-effect:none;fill:#ffffff;fill-opacity:1;fill-rule:nonzero;stroke:none;stroke-width:2.44945288;stroke-linecap:round;stroke-linejoin:round;stroke-miterlimit:4;stroke-dasharray:none;stroke-dashoffset:0;stroke-opacity:1;color-rendering:auto;image-rendering:auto;shape-rendering:auto;text-rendering:auto;enable-background:accumulate"
     d="m 270.47056,34.00244 c 23.80585,0.424967 42.80819,19.979936 42.55071,43.788191 -0.29852,23.836199 -19.79635,42.953789 -43.63381,42.782869 -23.80593,-0.17125 -43.01429,-19.5178 -43.01489,-43.32435 v -1.006114 c 0.59276,-23.806614 20.2879,-42.672381 44.09799,-42.240993 z m 20.19225,102.27636 c 8.65439,-0.29149 17.22909,1.73856 24.83413,5.87943 2.43913,0.7734 4.71908,1.97965 6.73075,3.56101 l 73.88349,55.39338 c 3.76458,2.83177 6.4851,6.8308 7.73649,11.37227 l 20.26961,72.80074 c 3.17561,11.34908 -3.45732,23.12213 -14.80961,26.28621 -11.3523,3.16408 -23.11861,-3.48079 -26.27116,-14.8363 l -18.33548,-65.83756 -18.49022,-13.84834 c 7.32645,25.42645 15.16893,53.58526 13.46149,76.04963 l -8.66487,111.63759 c 3.2e-4,0.0792 3.2e-4,0.15844 0,0.23766 l 45.41321,98.25348 c 7.405,14.94456 1.01869,33.05371 -14.12284,40.0471 -15.14153,6.9934 -33.06921,0.1141 -39.64577,-15.21309 L 292.82902,420.29282 c -3.78275,-7.90937 -3.86775,-17.08806 -0.23212,-25.06613 l 4.4872,-57.17427 c -0.49202,-0.12434 -0.98206,-0.25639 -1.46993,-0.39611 l -57.25004,59.64836 c -0.54698,0.53821 -1.11476,1.05487 -1.70204,1.54879 L 215.6962,504.76609 c -2.92082,14.61792 -17.13027,24.10719 -31.75175,21.20429 -14.62148,-2.9029 -24.12818,-17.10068 -21.24321,-31.72572 l 23.67365,-119.45162 c 0.59855,-3.14395 1.7512,-6.15647 3.40416,-8.89698 1.38999,-3.5028 3.43843,-6.70675 6.03447,-9.43847 l 63.36185,-65.99244 -7.81386,-51.7571 -2.86251,5.02899 c -1.69707,2.97341 -4.08538,5.4943 -6.96285,7.3494 l -53.22707,33.96351 c -9.92596,6.67785 -23.4026,3.88133 -29.85203,-6.19455 -6.44942,-10.07587 -3.34587,-23.48513 6.87467,-29.70277 l 48.81726,-31.17808 34.42738,-59.88049 c 8.55184,-11.57675 29.89833,-21.22128 42.08652,-21.81685 z"
     id="path4817"
     sodipodi:nodetypes="cccccccccccccscccccccsccccccccscccccccccsccccc" />
</svg>

<svg width="580" height="580" viewBox="0 0 580 580" fill="none" xmlns="http://www.w3.org/2000/svg">
<path d="M270.471 34.0025C294.276 34.4275 313.279 53.9825 313.021 77.7907C312.723 101.627 293.225 120.745 269.387 120.574C245.582 120.402 226.373 101.056 226.373 77.2492V76.2431C226.965 52.4365 246.66 33.5707 270.471 34.0021V34.0025ZM290.663 136.279C299.317 135.987 307.892 138.017 315.497 142.158C317.936 142.932 320.216 144.138 322.228 145.719L396.111 201.113C399.876 203.944 402.596 207.944 403.848 212.485L424.117 285.286C427.293 296.635 420.66 308.408 409.308 311.572C397.955 314.736 386.189 308.091 383.037 296.736L364.701 230.898L346.211 217.05C353.537 242.476 361.38 270.635 359.672 293.099L351.007 404.737C351.008 404.816 351.008 404.895 351.007 404.975L396.421 503.228C403.826 518.173 397.439 536.282 382.298 543.275C367.156 550.269 349.229 543.389 342.652 528.062L292.829 420.293C289.046 412.384 288.961 403.205 292.597 395.227L297.084 338.053C296.592 337.928 296.102 337.796 295.614 337.656L238.364 397.305C237.817 397.843 237.249 398.36 236.662 398.854L215.696 504.766C212.775 519.384 198.566 528.873 183.944 525.97C169.323 523.068 159.816 508.87 162.701 494.245L186.375 374.793C186.973 371.649 188.126 368.637 189.779 365.896C191.169 362.393 193.217 359.189 195.814 356.458L259.175 290.465L251.362 238.708L248.499 243.737C246.802 246.711 244.414 249.231 241.536 251.087L188.309 285.05C178.383 291.728 164.906 288.931 158.457 278.855C152.008 268.78 155.111 255.37 165.332 249.153L214.149 217.975L248.576 158.094C257.128 146.517 278.475 136.873 290.663 136.277L290.663 136.279Z" fill="white"/>
</svg>
